X:3499
T:Ciapa Rousa (D min)
L:1/8
M:3/4
R:Mazurka
S:From Les Panards Dansants Tunebook
K:Dm
D>E F>G A>B|A6|B>A G>A B>d|A6|
G>F E>G F>E|F>E D>F E>D|1 E2 G2 F2|E6:|2 E2 F2 E2|D3 E/2F>G:|
A>F D>A F>D|A>F D>A F>D|B>G E>B G>E|B>G E>B G>E|
B>A G>B A>G|B>A G>B A>G|1 E2 F2 G2|E6:|2 E2 F2 E2|D6:|

